X:1
T:Montague Reel
M:C|
L:1/8
K:D
C:G. Reynolds, David Kaynor, J. Borland
(3(ABc)|"D"d2 AG FDDF|"Em"GEED "AM"CA,A,A|"D"d2 AG FDDF|"A7"GEDC "D"D2(3(ABc)|!
|"D"d2 AG FDDF|"Em"GEED "AM"CA,A,G|"D"FDDA "G"BGdB|"A"cAec"D"d2:|]!
(3(efg)|"D"fddg fddf|"A"eAAd (3(dBA) Ag|"D"fddg fddf|"A"ecAc"D"d2(3(efg)|!
|"D"fddg fddf|"A"eAAd (3(cBA) AG|"D"FDDA "G"BGdB|"A"cAec"D"d2:|]!
